X:1
T:When I Take My Sugar To Tea
T:When I Take My Sugar To Tea
C:Sammy Fain
Z:All Rights Reserved
L:1/8
M:2/2
K:F
V:1 treble nm="Piano" snm="Pno."
%%MIDI program 0
%%MIDI control 7 100
%%MIDI control 10 64
V:1
 z4 z c2 A |:"F" D2 D2"F#dim" _ED E2 |"C7" E4- E c2 A |"F" D2 D2"F#dim" _ED E2 |"C7" E4- E c2 ^c | %5
w: When I|take my su- gar to|tea, _ All the|boys are jeal- ous of|me. _ 'Cause I|
"D7" d2 d2 d=cBA |"Gm7" c3 B-"Bbm" B2 FG |"F" A2 A2"C7" GF G2 |"F" F4"C7" z c2 A | %9
w: nev- er take her where the|gang goes, _ When I|take my su- gar to|tea. I'm a|
"F" D2 D2"F#dim" _ED E2 |"C7" E4- E c2 A |"F" D2 D2"F#dim" _ED E2 |"C7" E4- E c2 ^c | %13
w: row- dy dow- dy, that's|me, _ She's a|high- hat ba- by, that's|she. _ So I|
"D7" d2 d2 d=cBA |"Gm7" c3 B-"Bbm" B2 FG |"F" A2 A2"C7" GF G2 |"F" F4 z4 |"Bb" F G2 B- B2 F2 | %18
w: nev- er take her where the|gang goes. _ When I|take my su- gar to|tea.|Ev- 'ry Sun- * day|
 G2 Bd- d4 |"Eb7" _dBGF G2 GG- | G8 |"F" A2 c2 C2 D2 |"G7" F2 GA- A4 |"Db7" z _A2 A G2 F2 | %24
w: af- ter- noon _|We for- get a- bout our cares.|_|Rub- bing el- bows|ar the Ritz, _|With those mil- lion-|
"C7" c4- c c2 A |"F" D2 D2"F#dim" _ED E2 |"C7" E4- E c2 A |"F" D2 D2"F#dim" _ED E2 | %28
w: aires, _ When I|take my su- gar to|tea, _ I'm as|Ritz- y as I can|
"C7" E4- E c2 ^c |"D7" d2 d2 d=cBA |"Gm7" c3 B-"Bbm" B2 FG |"F" A2 A2"C7" GF G2 |1 %32
w: be. _ 'Cause I|nev- er take her where the|gan goes, _ When I|take my su- gar to|
"F""Bb" F4-"F" F"C7" c2 A :|2"F" F4- F z z2 || %34
w: tea. _ When I|tea. _|

